X:1
T:Shandon Bells
R:jig
M:6/8
L:1/8
K:D
d2B|:AFD DFA|ded cBA|BEE EFA|~B2A Bcd|
|AFD DFA|ded cBA|Bcd ecA|1 d3 d2B:|2 d3 d2e|]
|:fdd dcd|faa afd|cAA eAA|cAc efg|
|fdd dcd|faa afd|Bcd ecA|1 d3 d2e:|2 d3 d2B|]